Numix/16/status/indicator-keyboard-Fr-5.svg

<?xml version="1.0" encoding="UTF-8" standalone="no"?>
<svg
   xmlns:dc="http://purl.org/dc/elements/1.1/"
   xmlns:cc="http://creativecommons.org/ns#"
   xmlns:rdf="http://www.w3.org/1999/02/22-rdf-syntax-ns#"
   xmlns:svg="http://www.w3.org/2000/svg"
   xmlns="http://www.w3.org/2000/svg"
   xmlns:sodipodi="http://sodipodi.sourceforge.net/DTD/sodipodi-0.dtd"
   xmlns:inkscape="http://www.inkscape.org/namespaces/inkscape"
   viewBox="0 0 16 16"
   id="svg2"
   version="1.1"
   inkscape:version="0.91 r13725"
   sodipodi:docname="indicator-keyboard-Fr-5.svg">
  <metadata
     id="metadata14">
    <rdf:RDF>
      <cc:Work
         rdf:about="">
        <dc:format>image/svg+xml</dc:format>
        <dc:type
           rdf:resource="http://purl.org/dc/dcmitype/StillImage" />
      </cc:Work>
    </rdf:RDF>
  </metadata>
  <defs
     id="defs12" />
  <sodipodi:namedview
     pagecolor="#ffffff"
     bordercolor="#666666"
     borderopacity="1"
     objecttolerance="10"
     gridtolerance="10"
     guidetolerance="10"
     inkscape:pageopacity="0"
     inkscape:pageshadow="2"
     inkscape:window-width="459"
     inkscape:window-height="369"
     id="namedview10"
     showgrid="false"
     inkscape:zoom="14.75"
     inkscape:cx="8"
     inkscape:cy="8"
     inkscape:window-x="65"
     inkscape:window-y="24"
     inkscape:window-maximized="0"
     inkscape:current-layer="svg2" />
  <path
     style="fill:#ececec;fill-opacity:1"
     d="M 1.5996094 0 C 0.71320937 2.9605947e-16 0 0.71320937 0 1.5996094 L 0 14.400391 C 2.9605947e-16 15.286791 0.71320937 16 1.5996094 16 L 14.400391 16 C 15.286791 16 16 15.286791 16 14.400391 L 16 1.5996094 C 16 0.71320937 15.286791 0 14.400391 0 L 1.5996094 0 z M 3.0546875 4.859375 L 6.609375 4.859375 L 6.609375 5.390625 L 3.6660156 5.390625 L 3.6660156 7.5859375 L 6.2773438 7.5859375 L 6.2773438 8.1171875 L 3.6660156 8.1171875 L 3.6660156 11.095703 L 3.0546875 11.095703 L 3.0546875 4.859375 z M 9.1210938 6.3535156 C 9.3130938 6.3535156 9.4921562 6.3684375 9.6601562 6.3984375 C 9.8341563 6.4284375 9.9535315 6.4582812 10.019531 6.4882812 L 9.9023438 6.9921875 C 9.8543438 6.9681875 9.7554688 6.9439219 9.6054688 6.9199219 C 9.4614687 6.8899219 9.27125 6.875 9.03125 6.875 C 8.77925 6.875 8.5739688 6.8936875 8.4179688 6.9296875 C 8.2679687 6.9656875 8.1690937 6.9955312 8.1210938 7.0195312 L 8.1210938 11.095703 L 7.5371094 11.095703 L 7.5371094 6.6582031 C 7.6871094 6.5922031 7.8942031 6.5269375 8.1582031 6.4609375 C 8.4222031 6.3889375 8.7430938 6.3535156 9.1210938 6.3535156 z M 10.980469 8.8417969 L 12.804688 8.8417969 L 12.804688 9.1757812 L 11.3125 9.1757812 C 11.308633 9.2498812 11.302755 9.3458906 11.294922 9.4628906 C 11.287122 9.5798906 11.279284 9.6994188 11.271484 9.8242188 C 11.263684 9.9451188 11.253887 10.062681 11.242188 10.175781 C 11.230487 10.288881 11.220691 10.379012 11.212891 10.445312 C 11.513191 10.453112 11.773787 10.490341 11.992188 10.556641 C 12.210587 10.622941 12.388897 10.711119 12.529297 10.824219 C 12.669697 10.937319 12.773544 11.074475 12.839844 11.234375 C 12.910044 11.394275 12.945312 11.572578 12.945312 11.767578 C 12.945312 11.939178 12.915922 12.097894 12.857422 12.246094 C 12.802822 12.394294 12.716609 12.523613 12.599609 12.632812 C 12.482609 12.742012 12.33565 12.828225 12.15625 12.890625 C 11.97685 12.953025 11.763278 12.984375 11.517578 12.984375 C 11.392778 12.984375 11.275216 12.974578 11.166016 12.955078 C 11.060716 12.939478 10.966659 12.919884 10.880859 12.896484 C 10.798959 12.873084 10.728422 12.849572 10.669922 12.826172 C 10.611422 12.802772 10.568316 12.783178 10.541016 12.767578 L 10.640625 12.427734 C 10.664025 12.443334 10.703212 12.462928 10.757812 12.486328 C 10.816313 12.509728 10.882931 12.533241 10.957031 12.556641 C 11.035031 12.576141 11.119291 12.593775 11.212891 12.609375 C 11.310391 12.624975 11.412278 12.632812 11.517578 12.632812 C 11.712578 12.632812 11.875206 12.611259 12.003906 12.568359 C 12.136506 12.521559 12.240359 12.458859 12.318359 12.380859 C 12.396359 12.302859 12.451222 12.212728 12.482422 12.111328 C 12.517522 12.006028 12.535156 11.894337 12.535156 11.773438 C 12.535156 11.617437 12.509684 11.476362 12.458984 11.351562 C 12.408284 11.226762 12.320106 11.120956 12.191406 11.035156 C 12.062706 10.949356 11.888322 10.884697 11.669922 10.841797 C 11.451522 10.794997 11.175244 10.771484 10.839844 10.771484 C 10.863244 10.572584 10.882837 10.392316 10.898438 10.228516 C 10.914037 10.060816 10.927753 9.9001469 10.939453 9.7480469 C 10.951153 9.5920469 10.958991 9.4431281 10.962891 9.2988281 C 10.970691 9.1506281 10.976569 8.9977969 10.980469 8.8417969 z "
     id="path4" />
</svg>

<svg xmlns="http://www.w3.org/2000/svg" viewBox="0 0 16 16">
 <path d="m 1.6 0 c -0.886 0 -1.6 0.713 -1.6 1.6 l 0 12.801 c 0 0.886 0.713 1.6 1.6 1.6 l 12.801 0 c 0.886 0 1.6 -0.713 1.6 -1.6 l 0 -12.801 c 0 -0.886 -0.713 -1.6 -1.6 -1.6 l -12.801 0 z m 1.455 4.859 l 3.555 0 l 0 0.531 l -2.943 0 l 0 2.195 l 2.611 0 l 0 0.531 l -2.611 0 l 0 2.979 l -0.611 0 l 0 -6.236 z m 6.066 1.494 c 0.192 0 0.371 0.015 0.539 0.045 c 0.174 0.03 0.293 0.06 0.359 0.09 l -0.117 0.504 c -0.048 -0.024 -0.147 -0.048 -0.297 -0.072 c -0.144 -0.03 -0.334 -0.045 -0.574 -0.045 c -0.252 0 -0.457 0.019 -0.613 0.055 c -0.15 0.036 -0.249 0.066 -0.297 0.09 l 0 4.076 l -0.584 0 l 0 -4.437 c 0.15 -0.066 0.357 -0.131 0.621 -0.197 c 0.264 -0.072 0.585 -0.107 0.963 -0.107 z m 1.859 2.488 l 1.824 0 l 0 0.334 l -1.492 0 c -0.004 0.074 -0.01 0.17 -0.018 0.287 c -0.008 0.117 -0.016 0.237 -0.023 0.361 c -0.008 0.121 -0.018 0.238 -0.029 0.352 c -0.012 0.113 -0.021 0.203 -0.029 0.27 c 0.3 0.008 0.561 0.045 0.779 0.111 c 0.218 0.066 0.397 0.154 0.537 0.268 c 0.14 0.113 0.244 0.25 0.311 0.41 c 0.07 0.16 0.105 0.338 0.105 0.533 c 0 0.172 -0.029 0.33 -0.088 0.479 c -0.055 0.148 -0.141 0.278 -0.258 0.387 c -0.117 0.109 -0.264 0.195 -0.443 0.258 c -0.179 0.062 -0.393 0.094 -0.639 0.094 c -0.125 0 -0.242 -0.01 -0.352 -0.029 c -0.105 -0.016 -0.199 -0.035 -0.285 -0.059 c -0.082 -0.023 -0.152 -0.047 -0.211 -0.07 c -0.059 -0.023 -0.102 -0.043 -0.129 -0.059 l 0.1 -0.34 c 0.023 0.016 0.063 0.035 0.117 0.059 c 0.059 0.023 0.125 0.047 0.199 0.07 c 0.078 0.019 0.162 0.037 0.256 0.053 c 0.097 0.016 0.199 0.023 0.305 0.023 c 0.195 0 0.358 -0.022 0.486 -0.064 c 0.133 -0.047 0.236 -0.109 0.314 -0.188 c 0.078 -0.078 0.133 -0.168 0.164 -0.27 c 0.035 -0.105 0.053 -0.217 0.053 -0.338 c 0 -0.156 -0.025 -0.297 -0.076 -0.422 c -0.051 -0.125 -0.139 -0.231 -0.268 -0.316 c -0.129 -0.086 -0.303 -0.15 -0.521 -0.193 c -0.218 -0.047 -0.495 -0.07 -0.83 -0.07 c 0.023 -0.199 0.043 -0.379 0.059 -0.543 c 0.016 -0.168 0.029 -0.328 0.041 -0.48 c 0.012 -0.156 0.02 -0.305 0.023 -0.449 c 0.008 -0.148 0.014 -0.301 0.018 -0.457 z" style="fill:#ececec;fill-opacity:1"/>
</svg>
